X: 1900
T: Stringybark Tree
B: australian traditional tunes wiki
M:3/4
L:1/8
R: Waltz
Q: 1/4=100
K:C
V:1 
GG|"C"G2E2C2|G,2C2E2|G2F2E2|"G7"F4F2|F2D2B,2|G,2B,2D2|"D"A2G2^F2|"G"G4G2|
"C"G2E2C2|G,2C2E2|G2F2E2|"G7"F4 EF|"C"G2G2G2|"Dm"A2F2D2|"G7"G,2E2D2|"C"C4||
% abcbook-tune_id 6342d53a4ad9dfbf0c4d9688


% abcbook-boost 0
% abcbook-tablature 
% abcbook-transpose 
% abcbook-lastupdated 1665324391589
% abcbook-soundfonts 
% abcbook-repeats 1
% NFF Book 2022
% Bush Traditions recording played by Ray Mulligan

